X: 3
T: The Limestone Rock
R: reel
M: 4/4
L: 1/8
K: Gmaj
dc|:B~G3 A~G3 | D~G3 A2dc | B~G3 A~G3 | cABG A2dc |
B~G3 A~G3 | D~G3 A2dc | B~G3 A~G3 |1 (3Bcd ef g2dc |2 (3Bcd ef g3d |
{g}e2dB {g}e2dB | eBdB A2Bd | e~B3 g~B3 | eBdB A2Bd |
(3ege d2 (3ege d2 | (3ege dB A2Bd | eggf g3d | edef g2 |


Tune 1619	Setting 15046

